svgs/sharp-solid/cloud-exclamation.svg

<svg xmlns="http://www.w3.org/2000/svg" viewBox="0 0 640 512"><!--! Font Awesome Pro 6.6.0 by @fontawesome - https://fontawesome.com License - https://fontawesome.com/license (Commercial License) Copyright 2024 Fonticons, Inc. --><path d="M144 480L0 480 0 336c0-62.7 40.1-116 96-135.8l0-8.2c0-88.4 71.6-160 160-160c59.3 0 111 32.2 138.7 80.2C409.9 102 428.3 96 448 96c53 0 96 43 96 96l0 36c55.2 14.2 96 64.3 96 124l0 128-128 0-368 0zM344 160l-48 0 0 24 0 112 0 24 48 0 0-24 0-112 0-24zM296 352l0 48 48 0 0-48-48 0z"/></svg>

<svg xmlns="http://www.w3.org/2000/svg" viewBox="0 0 640 512"><!--! Font Awesome Pro 6.4.2 by @fontawesome - https://fontawesome.com License - https://fontawesome.com/license (Commercial License) Copyright 2023 Fonticons, Inc. --><path d="M144 480H0V336c0-62.7 40.1-116 96-135.8V192c0-88.4 71.6-160 160-160c59.3 0 111 32.2 138.7 80.2C409.9 102 428.3 96 448 96c53 0 96 43 96 96v36c55.2 14.2 96 64.3 96 124V480H512 144zM344 160H296v24V296v24h48V296 184 160zM296 352v48h48V352H296z"/></svg>
